X:1
T:Je ne suis pas si sot berger  4v
T:Jacques Arcadelt
T:Source : Neufiesme Livre de chansons à 4 parties---Paris---N.du Chemin---1551. Editor : André Vierendeels (19/12/14).
T:Je ne suis pas si sot berger  4v
C:Jacques Arcadelt
%%score [ 1 2 3 4 ]
L:1/8
Q:1/4=90
M:2/2
K:F
V:1 treble nm="Superius" snm="S"
V:2 treble nm="Altus" snm="A"
V:3 treble-8 nm="Tenor" snm="T"
V:4 bass nm="Bassus" snm="B"
V:1
 z8 | z8 | d2 dd c2 A2 | Bc dB c2 B2 | A4 z2 B2 | AG AB c2 d2- | dc B2 A2 G2- | G2 F2 G4 | %8
w: ||Je ne suis pas si|sot _ _ _ _ ber-|ger, je|ne _ _ _ suis pas|_ _ _ si sot|_ ber- ger,|
 D2 DD F2 F2 | G2 A2 D4 | d2 dd c2 A2 | Bc dB c2 B2 | A4 z2 B2 | AG AB c2 d2- | dc B2 A2 G2- | %15
w: si vous te- nois à|mon cou- cher,|si vous te- nois à|mon _ _ _ _ cou-|cher, si|vous _ _ _ te- nois|_ _ _ à mon|
 G2 F2 G4 | G2 GG AAFF | G2 B2 c2 d2- | d2 c4 B2- | B2 A2 B4- | B4 z4 | z8 |:[M:2/4] d2 dd | %23
w: _ cou- cher,|que ne vous fis- ses des- pouil-|ler cot- t'et che-|* mi- *|* * se,|_||et puis mon|
[M:2/2] c3 B A2 G2 | F2 G2 A2 B2 | AG G4 F2 | G8 :| %27
w: fla- geo- let au-|riez à vo- stre|gui- * * *|se.|
V:2
 z8 | z4 G2 GG | F2 D2 E2 F2 | GA BG A2 G2- | G2 F2 G4 | z2 F2 G2 A2 | D2 G2 E2 C2 | D4 D2 DD | %8
w: |Je ne suis|pas si sot ber-||* * ger,|je ne suis|pas si sot ber-|ger, si vous te-|
 B,2 B,2 A,2 A,2 | G,2 z2 z GGG | F2 D2 E2 F2 | GA BG A2 G2- | G2 F2 G4 | z2 F2 G2 A2 | %14
w: nois à mon cou-|cher, si vous te-|nois à mon cou-||* * cher,|si vous te-|
 D2 G2 E2 C2 | D4 z2 G2 | GGEE F2 F2 | D4 F4 | D2 F2 F2 E2 | F8 | G2 GG F3 E | D2 C2 D4 |: %22
w: nois à mon cou-|cher, que|ne vous fis- ses des- pouil-|ler cot-|t'et- che- mi- *|se,|et puis mon fla- geo-|let au- riez,|
[M:2/4] D2 DD |[M:2/2] E3 E E2 E2 | DC DE F2 F2 | E2 C2 D4 | D8 :| %27
w: et puis mon|fla- geo- let au-|ri- * * * ez à|vo- stre gui-|se.|
V:3
 z4 d2 dd | c2 A2 B3 c | d2 G2 z4 | z2 g2 f2 g2 | d4 z4 | d2 dd c2 A2 | Bc dB cB AG | A2 A2 G4 | %8
w: Je ne suis|pas si sot- _|ber- ger,|si sot ber-|ger,|je ne suis pas si|sot _ _ _ _ _ _ _|_ ber- ger,|
 z4 d2 dd | c2 A2 B3 c | d2 G2 z4 | z2 g2 f2 g2 | d4 z4 | d2 dd c2 A2 | Bc dB cB AG | A2 A2 G4 | %16
w: si vous te-|nois à mon _|cou- cher,|à mon cou-|cher,|si vous te- nois à|mon _ _ _ _ _ _ _|_ cou- cher,|
 c2 cc A2 A2 | B2 B2 A2 A2 | B2 c2 d2 cB | c4 B4 | d2 dd c3 B | A2 G2 F4 |:[M:2/4] B2 BB | %23
w: que ne- vous fis- ses|des- pouil- ler cot-|t'et che- mi- * *|* se,|et puis mon fla- geo-|let au- riez,|et puis mon|
[M:2/2] G2 G2 c3 B | A2 B2 c2 d2 | cB AG A4 | G8 :| %27
w: fla- geo- let au-|riez à vo- stre|gui- * * * *|se.|
V:4
 G,2 G,G, F,2 D,2 | E,2 F,2 G,2 G,2 | B,4 A,4 | G,4 z4 | z4 G,2 G,G, | F,2 D,2 E,2 F,2 | %6
w: Je ne suis pas si|sot ber- ger, si|sot ber-||je ne suis|pas si sot ber-|
 G,2 G,2 C,2 E,2 | D,4 z4 | G,2 G,G, F,2 D,2 | E,2 F,2 G,2 G,2 | B,4 A,4 | G,4 z4 | z4 G,2 G,G, | %13
w: ger, si sot ber-|ger,|si vous te- nois à|mon cou- cher, à|mon cou-|cher,|si vous te-|
 F,2 D,2 E,2 F,2 | G,4 C,2 E,2 | D,4 G,4 | C,2 C,C, F,2 D,2 | G,2 G,2 F,2 D,2 | G,2 A,2 B,2 G,2 | %19
w: nois à mon cou-|cher, à mon|cou- cher,|que ne- vous fis- ses|des- pouil- ler cot-|t'et che- mi- *|
 F,4 z4 | G,2 G,G, A,3 G, |"^#" F,2 E,2 D,4 |:[M:2/4] G,2 G,G, |[M:2/2] C,3 C, C,2 C,2 | %24
w: se,|et puis mon fla- geo-|let au- riez,|et puis mon|fla- geo- let au-|
 D,2 G,2 F,2 B,,2 |"^b" C,2 E,2 D,4 | G,8 :| %27
w: riez à vo- stre|gui- * *|se.|

